X:21051 
T:ERIN'S HOPE (reel) 
B:DMI.0651 % A-B-A
Z:Nordberg/Black
R:reel
%Q:1/4=180
M:C|
L:1/8
K:G
dc|B2AG BdAG|FADA FADc|1 B2AG BdAG|FDEF GB:|\
[2 B2AG gedc|BdAF G2||
f2|:g2gd BGBd|gfeg fgaf|1 g2gd BdAG|FADA FADF:|\
[2 abaf gedc|BdAG FAdc|]
"repeat mm 1 - 3 then |FDEF HG4|"

%%%

